src/images/svg/flags/uk.svg

<svg width="24" height="16" viewBox="0 0 24 16" fill="none" xmlns="http://www.w3.org/2000/svg">
<mask id="mask0_1905_56" style="mask-type:alpha" maskUnits="userSpaceOnUse" x="0" y="0" width="24" height="16">
<path d="M22 0H2C0.89543 0 0 0.89543 0 2V14C0 15.1046 0.89543 16 2 16H22C23.1046 16 24 15.1046 24 14V2C24 0.89543 23.1046 0 22 0Z" fill="white"/>
</mask>
<g mask="url(#mask0_1905_56)">
<path d="M22 0H2C0.89543 0 0 0.89543 0 2V14C0 15.1046 0.89543 16 2 16H22C23.1046 16 24 15.1046 24 14V2C24 0.89543 23.1046 0 22 0Z" fill="#0D47A1"/>
<path d="M23.9751 1.53723C23.8335 0.672521 23.094 0.013092 22.2026 0.013092H21.7349L14.069 5.11533V0.013092H9.93103V5.11538L2.26509 0.013092H1.79742C0.906 0.013092 0.166547 0.672521 0.0248906 1.53728L6.57698 5.89823H0V10.1019H6.57698L0.0248906 14.4627C0.166547 15.3274 0.906 15.9869 1.79742 15.9869H2.26509L9.93103 10.8846V15.9869H14.069V10.8846L21.7349 15.9869H22.2026C23.094 15.9869 23.8335 15.3275 23.9751 14.4627L17.423 10.1018H24V5.89814H17.423L23.9751 1.53723Z" fill="white"/>
<path d="M13.2414 0.0131531V6.73891H24V9.26111H13.2414V15.9869H10.7586V9.26111H0V6.73891H10.7586V0.0131531H13.2414ZM9.90825 10.1018L1.16217 15.8692C0.934209 15.7816 0.728507 15.6484 0.555672 15.4804L0.432375 15.3481L8.38819 10.1018H9.90825ZM16.2369 10.1018L23.7639 15.0652C23.651 15.2658 23.5018 15.4427 23.3253 15.5864L23.1879 15.6878L14.7169 10.1018H16.2369ZM0.725391 0.373439L9.10345 5.8982H7.58339L0.189797 1.02263C0.316359 0.765915 0.500437 0.543534 0.725391 0.373439ZM22.8235 0.125105C23.1105 0.232391 23.3626 0.412201 23.5594 0.642248L15.589 5.8982H14.069L22.8235 0.125105Z" fill="#F44336"/>
<path fill-rule="evenodd" clip-rule="evenodd" d="M22 1H2C1.44772 1 1 1.44772 1 2V14C1 14.5523 1.44772 15 2 15H22C22.5523 15 23 14.5523 23 14V2C23 1.44771 22.5523 1 22 1ZM2 0C0.895431 0 0 0.895431 0 2V14C0 15.1046 0.89543 16 2 16H22C23.1046 16 24 15.1046 24 14V2C24 0.895431 23.1046 0 22 0H2Z" fill="black" fill-opacity="0.04"/>
</g>
</svg>

<svg width="24" height="16" fill="none" xmlns="http://www.w3.org/2000/svg"><mask id="a" style="mask-type:alpha" maskUnits="userSpaceOnUse" x="0" y="0" width="24" height="16"><path d="M22 0H2a2 2 0 0 0-2 2v12a2 2 0 0 0 2 2h20a2 2 0 0 0 2-2V2a2 2 0 0 0-2-2Z" fill="#fff"/></mask><g mask="url(#a)"><path d="M22 0H2a2 2 0 0 0-2 2v12a2 2 0 0 0 2 2h20a2 2 0 0 0 2-2V2a2 2 0 0 0-2-2Z" fill="#0D47A1"/><path d="M23.975 1.537A1.806 1.806 0 0 0 22.203.013h-.468l-7.666 5.102V.013H9.931v5.102L2.265.013h-.468C.906.013.167.673.025 1.537l6.552 4.361H0v4.204h6.577l-6.552 4.36a1.806 1.806 0 0 0 1.772 1.525h.468l7.666-5.102v5.102h4.138v-5.102l7.666 5.102h.468c.891 0 1.63-.66 1.772-1.524l-6.552-4.361H24V5.898h-6.577l6.552-4.36Z" fill="#fff"/><path d="M13.241.013V6.74H24V9.26H13.241v6.726H10.76V9.26H0V6.74h10.759V.013h2.482ZM9.908 10.102l-8.746 5.767a1.794 1.794 0 0 1-.606-.389l-.124-.132 7.956-5.246h1.52Zm6.329 0 7.527 4.963a1.83 1.83 0 0 1-.439.521l-.137.102-8.471-5.586h1.52ZM.725.373l8.378 5.525h-1.52L.19 1.023C.316.766.5.543.725.373ZM22.824.125a1.8 1.8 0 0 1 .735.517l-7.97 5.256h-1.52L22.823.125Z" fill="#F44336"/><path fill-rule="evenodd" clip-rule="evenodd" d="M22 1H2a1 1 0 0 0-1 1v12a1 1 0 0 0 1 1h20a1 1 0 0 0 1-1V2a1 1 0 0 0-1-1ZM2 0a2 2 0 0 0-2 2v12a2 2 0 0 0 2 2h20a2 2 0 0 0 2-2V2a2 2 0 0 0-2-2H2Z" fill="#000" fill-opacity=".04"/></g></svg>
